X: 11
M: 2/4
L: 1/8
K: G
V: 1
{B}A3B | G2AG | FGcB | A2Bc |\
{B}A3B | G2AG | FG B/A/G/F/ | G2 :|\
|: Bc |\
d2ed | {d}c3B | AGFG | {G}A2Bc |
d2ed | {d}c3B | AGcB | A2Bc |\
{B}A3B | G2AG | FGcB | A2Bc |\
{B}A3B | G2AG | FG B/A/G/F/ | G2 :| [K:Gm]
|: "Mineur"Bc |\
d2ec | d2cB | AG^FG | AD Bc |\
d2ec | dgdc | {c}BA/G/ B/A/G/^F/ | G2 :|\
|: df |\
{f}e2ce | {e}d2fB | ABed | {d}c2f_A |
ceAc | BdGB | AcAG | {G}^F2Bc |\
d2ec | dgdc | {c}BA/G/ B/A/G/^F/ | G2 :|
V: 2 clef=bass middle=d
gc |\
dd'dg | e2c2 | dBAG | d2gc | dd'dg | e2c2 | dgdD |
d2gc | dd'dg | e2c2 | dBAG | d2gc | dd'dg | e2c2 | dgdD | G2 :| [K:Gm]
|: "Mineur" g2 |\
g2g2 | gbag | c'bag | dcBA | G2g2 | G2Bc | d2D2 |


